X:1
T:The Still Small Voice (Petterson)
T:The Still Small Voice (Petterson)
T:Charles Hutchinson Gabriel
T:A. Sindell Petterson, 1908
T:Public Domain Courtesy of the Cyber Hymnal™
T:Public Domain Courtesy of the Cyber Hymnal™
C:Charles Hutchinson Gabriel
Z:Public Domain
Z:Courtesy of the Cyber Hymnal™
%%score ( 1 2 ) ( 3 4 )
L:1/8
Q:1/4=99
M:4/4
K:G
V:1 treble 
V:2 treble 
V:3 bass 
V:4 bass 
V:1
 [B,D][B,D] | [B,G]2 [B,G][B,G] [B,G] [DB]2 [DA] | [EG]>[EA] [EG][CE] [B,D]2 [B,D][B,D] | %3
w: 1.~Do you|feel a strange long- ing with-|in your soul to- day? Would you|
w: 2.~It would|pro- fit you no- thing, tho’|all the world you gain, If in|
w: 3.~Are you|weak, hea- vy la- den, by|sin and woe op- pressed? Hear Him|
 [DG][DG][DG][DG] [GB]2 [Gd]2 | [FA]6 [GB][Ac] | [Bd]2 [Gd][Ge] [Gd] [GB]2 [DA] | %6
w: find the straight and nar- row|way? Does a|voice seem to whis- per, “My|
w: self- ish sin you still re-|main; All its|pomp and its glo- ry, your|
w: say, “Come un- to Me and|rest”; Come, oh,|come to the Sav- ior, you|
 [EG]>[EA] [EG][CE] [B,D]2 [B,D][B,D] | [CE][DF][EG][EA] [DB] [Gd]2 [Ac] | %8
w: son, give Me thy heart”? Then the|time has come for choos- ing the|
w: soul can nev- er save; It will|van- ish at the por- tals, the|
w: will not be de- nied, If you|bring as plea for par- don the|
 [GB]2 [DA]2 !fermata![DG]2 ||"^Refrain" [DB][Dc] | [Gd]2 [Gd]2 [Ge]2 [Gd][GB] | %11
w: bet- ter part.|||
w: si- lent grave.|’Tis the|still small voice of the|
w: Cru- ci- fied.|||
 [Gd]2 [GB]2 [DA] [DG]2 z | D [DG]3 [DG] [GB]3 | [Gd]>[Ge] [Gd][GB] !fermata![FA]2 [GB][Ac] | %14
w: |||
w: Sav- ior call- ing,|Call- ing, call- ing,|call- ing, “Come to Me”; Ma- ny|
w: |||
 [Bd]2 [Gd][Ge] [Gd] [GB]2 [DA] | [EG]>[EA] [EG][CE] [B,D]2 [B,D][B,D] | %16
w: ||
w: years, Lord, I’ve heard Thee, I|will no more de- lay; Thou shalt|
w: ||
 [CE][DF][EG][EA] [DB] [Gd]2 [Ac] | [GB]2 [DA]2 !fermata![DG]2 |] %18
w: ||
w: call in vain no long- er, I|now o- bey.|
w: ||
V:2
 x2 | x8 | x8 | x8 | x8 | x8 | x8 | x8 | x6 || x2 | x8 | x8 | D x7 | x8 | x8 | x8 | x8 | x6 |] %18
V:3
 [G,,G,][G,,G,] | [G,,D,]2 [G,,D,][G,,D,] [G,,D,] [G,,G,]2 [B,,G,] | %2
 [C,G,]>[C,C] [C,C][C,G,] [G,,G,]2 [G,,G,][G,,G,] | [G,B,][G,B,][G,B,][G,B,] [G,D]2 [B,,D]2 | %4
 [D,D]6 [G,D][G,D] | [G,D]2 [G,B,][G,C] [G,B,] [G,D]2 [G,B,] | %6
 [C,C]>[C,C] [C,C][C,G,] [G,,G,]2 [G,,G,][G,,G,] | [C,G,][C,G,][C,G,][C,G,] [D,G,] [D,B,]2 [D,E] | %8
 [D,D]2 [D,C]2 !fermata![G,,B,]2 || G,[G,A,] | [G,B,]2 [G,B,]2 [G,C]2 [G,B,][G,D] | %11
 [G,B,]2 [G,D]2 [G,C] [G,B,]2 z | [G,B,] [G,B,]3 [G,B,] [G,D]3 | %13
 [G,B,]>[G,C] [G,B,][G,D] !fermata![D,D]2 [G,D][G,D] | [G,D]2 [G,B,][G,C] [G,B,] [G,D]2 [G,B,] | %15
 [C,C]>[C,C] [C,C][C,G,] [G,,G,]2 [G,,G,][G,,G,] | [C,G,][C,G,][C,G,][C,G,] [D,G,] [D,B,]2 [D,E] | %17
 [D,D]2 [D,C]2 !fermata![G,,B,]2 |] %18
V:4
 x2 | x8 | x8 | x8 | x8 | x8 | x8 | x8 | x6 || G, x | x8 | x8 | x8 | x8 | x8 | x8 | x8 | x6 |] %18

